X: 6
T: The South Wind
R: waltz
M: 3/4
L: 1/8
K: Gmaj
dc|B3A G2|B3c d2|A3B A2|A4 dc|
B3A G2|E3D E2|G6-|G2 z2 dc|
B3A G2|B3c d2|A3B A2|A4 dc|
B3A G2|E3D E2|G6-|G2 z2 Bd|
g3a g2|g3f e2|d3e d2|d4 c2|
B3A G2|B3c d2|A3B A2|A2 z2 Bd|
g3a gf|g3f e2|d3e d2|d4 c2|
B3A GA/B/|c3A F2|G6-|G2 z2 ||


Tune 601	Setting 13608

